X: 33549
T: Rakers, The
R: jig
M: 6/8
K: Dminor
DAe f3|def edA|ABG- GAF|GEF GFE|
DDD BDA|DGD FED|G,DA B2G-|GEF GFE:|
D2A, DEF|DEF DEF-|F3 FGA|FGA FGG-|
G3 GAB|GAB GAB|ADD BDA|DGD FED|
d2A def|def def-|f3 fga|fga fgg-|
g3 gab|gab gab|afe d2A|BAG FGE||

